svg/file_excel_box.svg

<svg xmlns="http://www.w3.org/2000/svg" viewBox="0 0 24 24"><path d="M16.2 17h-2L12 13.2 9.8 17h-2l3.2-5-3.2-5h2l2.2 3.8L14.2 7h2L13 12m6-9H5c-1.11 0-2 .89-2 2v14a2 2 0 0 0 2 2h14a2 2 0 0 0 2-2V5a2 2 0 0 0-2-2"/></svg>

<?xml version="1.0" encoding="UTF-8"?><!DOCTYPE svg PUBLIC "-//W3C//DTD SVG 1.1//EN" "http://www.w3.org/Graphics/SVG/1.1/DTD/svg11.dtd"><svg xmlns="http://www.w3.org/2000/svg" xmlns:xlink="http://www.w3.org/1999/xlink" version="1.1" id="mdi-file-excel-box" width="24" height="24" viewBox="0 0 24 24"><path d="M16.2,17H14.2L12,13.2L9.8,17H7.8L11,12L7.8,7H9.8L12,10.8L14.2,7H16.2L13,12M19,3H5C3.89,3 3,3.89 3,5V19A2,2 0 0,0 5,21H19A2,2 0 0,0 21,19V5C21,3.89 20.1,3 19,3Z" /></svg>
